X:427
T:Cafe Waltz
Z:Jack Campin, http://www.campin.me.uk/
F:Jack Campin's Nine-Note Tunebook
% last edit 03-02-2013
M:3/4
L:1/8
Q:3/4=60
Z:Steve Mansfield
K:EMin
      B4    G2|E3   F G2|A2  AG FE|   D2 E2 F2|\
      G2 F2 G2|A2 ^G2 A2|
                         B2 ^A2 B2|   A6      |\
      B4    G2|E3   F G2|A2  AG FE|   D2 E2 F2|
      G2 F2 G2|A2  F2 A2|B2 _B2 A2|[1 G6     :|\
                                   [2 G3     |:\
  FGE|D4    G2|E2  c2 B2|
                         A2  d2 c2|   B3   AGE|\
      D4    G2|E2  c2 B2|A2  G2 F2|[1 G3     :|\
                                   [2 G4     ||
|: A2|BG EG BG|BG  EG BG|cA  FD FA|   cA FD FA|
      BG EG BG|BG  EG BG|cA  FD FA|[1 G4     :|\
                                   [2 G6     |]

